X:1
T:Title
%%score 1 2 3
L:1/8
Q:1/4=115
M:4/4
K:G
V:1 treble nm="Clarinet"
V:2 treble nm="Oboe"
V:3 bass nm="Cello"
V:1
 B2 E2 FG A2 | B2 E2 FG A2 | z2 BE c2 BA | G2 A2 B4 | B2 E2 FG A2 | B2 E2 FG A2 | z2 BE c2 BA | %7
 G2 F2 E4 | z d2 d d2 c2 | BA G4 z G | A3 A d2 c2 | B8 | z d2 d d3 c | B2 A2 G3 A | B3 E G F3 | %15
 E8 | FFFF A3 A | GA B4 z2 | AAAA d2 dc | B8 | FFFF A3 A | GA B6 | BFGA G2 F2 | E6 z2 | %24
 B2 E2 FG A2 | B2 E2 FG A2 | z2 BE c2 BA | G2 A2 B4 | B2 E2 FG A2 | B2 E2 FG A2 | z2 BE c2 BA | %31
 G2 F2 E4 | z d2 d d2 c2 | BA G4 z G | A3 A d2 c2 | B8 | z d2 d d3 c | B2 A2 G3 A | B3 E G F3 | %39
 E8 | FFFF A3 A | GA B4 z2 | AAAA d2 dc | B8 | FFFF A3 A | GA B6 | BFGA G2 F2 | E6 z2 | %48
 B2 E2 FG A2 | B2 E2 FG A2 | z2 BE c2 BA | G2 A2 B4 | B2 E2 FG A2 | B2 E2 FG A2 | z2 BE c2 BA | %55
 G2 F2 E4 | z d2 d d2 c2 | BA G4 z G | A3 A d2 c2 | B8 | z d2 d d3 c | B2 A2 G3 A | B3 E G F3 | %63
 E8 | FFFF A3 A | GA B4 z2 | AAAA d2 dc | B8 | FFFF A3 A | GA B6 | BFGA G2 F2 | E8 |] %72
V:2
 [GB]2 [DE]2 [CF][EG] [FA]2 | [GB]2 [DE]2 [CF][EG] [FA]2 | z2 [DB][CE] [Ec]2 [DB][FA] | %3
 [EG]2 [FA]2 [DB]4 | [GB]2 [DE]2 [CF][EG] [FA]2 | [GB]2 [DE]2 [CF][EG] [FA]2 | %6
 z2 [DB][CE] [Ec]2 [DB][FA] | [EG]2 F2 [DE]4 | z [Bd]2 [Bd] [Bd]2 [Ec]2 | [DB][FA] [EG]4 z [EG] | %10
 [FA]3 [FA] [Bd]2 [Ec]2 | [DB]8 | z [Bd]2 [Bd] [Bd]3 [Ac] | [GB]2 [FA]2 [EG]3 [FA] | %14
 [GB]3 [CE] [EG] [DF]3 | [DE]8 | [DF][DF][DF][DF] [FA]3 [FA] | [EG][FA] [DB]4 z2 | %18
 [FA][FA][FA][FA] [Bd]2 [Bd][Ac] | [DB]8 | [DF][DF][DF][DF] [FA]3 [FA] | [EG][FA] [DB]6 | %22
 [DB][CF][EG][CA] [CG]2 [CF]2 | [A,E]6 z2 | [GB]2 [DE]2 [CF][EG] [FA]2 | %25
 [GB]2 [DE]2 [CF][EG] [FA]2 | z2 [DB][CE] [Ec]2 [DB][FA] | [EG]2 [FA]2 [DB]4 | %28
 [GB]2 [DE]2 [CF][EG] [FA]2 | [GB]2 [DE]2 [CF][EG] [FA]2 | z2 [DB][CE] [Ec]2 [DB][FA] | %31
 [EG]2 F2 [DE]4 | z [Bd]2 [Bd] [Bd]2 [Ec]2 | [DB][FA] [EG]4 z [EG] | [FA]3 [FA] [Bd]2 [Ec]2 | %35
 [DB]8 | z [Bd]2 [Bd] [Bd]3 [Ac] | [GB]2 [FA]2 [EG]3 [FA] | [GB]3 [CE] [EG] [DF]3 | [DE]8 | %40
 [DF][DF][DF][DF] [FA]3 [FA] | [EG][FA] [DB]4 z2 | [FA][FA][FA][FA] [Bd]2 [Bd][Ac] | [DB]8 | %44
 [DF][DF][DF][DF] [FA]3 [FA] | [EG][FA] [DB]6 | [DB][CF][EG][CA] [CG]2 [CF]2 | [A,E]6 z2 | %48
 [GB]2 [DE]2 [CF][EG] [FA]2 | [GB]2 [DE]2 [CF][EG] [FA]2 | z2 [DB][CE] [Ec]2 [DB][FA] | %51
 [EG]2 [FA]2 [DB]4 | [GB]2 [DE]2 [CF][EG] [FA]2 | [GB]2 [DE]2 [CF][EG] [FA]2 | %54
 z2 [DB][CE] [Ec]2 [DB][FA] | [EG]2 F2 [DE]4 | z [Bd]2 [Bd] [Bd]2 [Ec]2 | [DB][FA] [EG]4 z [EG] | %58
 [FA]3 [FA] [Bd]2 [Ec]2 | [DB]8 | z [Bd]2 [Bd] [Bd]3 [Ac] | [GB]2 [FA]2 [EG]3 [FA] | %62
 [GB]3 [CE] [EG] [DF]3 | [DE]8 | [DF][DF][DF][DF] [FA]3 [FA] | [EG][FA] [DB]4 z2 | %66
 [FA][FA][FA][FA] [Bd]2 [Bd][Ac] | [DB]8 | [DF][DF][DF][DF] [FA]3 [FA] | [EG][FA] [DB]6 | %70
 [DB][CF][EG][CA] [CG]2 [CF]2 | [A,E]8 |] %72
V:3
 D,4 D,4 | D,4 D,4 | G,4 A,4 | C,4 G,4 | D,4 D,4 | D,4 D,4 | G,4 A,4 | C,4 A,4 | G,4 G,4 | G,8 | %10
 D,4 G,4 | G,8 | G,4 G,4 | D,4 B,4 | D,4 B,4 | A,8 | A,4 C,4 | C,4 G,4 | A,4 G,4 | G,8 | A,4 C,4 | %21
 C,4 G,4 | G,4 E,4 | A,,8 | D,4 D,4 | D,4 D,4 | G,4 A,4 | C,4 G,4 | D,4 D,4 | D,4 D,4 | G,4 A,4 | %31
 C,4 A,4 | G,4 G,4 | G,8 | D,4 G,4 | G,8 | G,4 G,4 | D,4 B,4 | D,4 B,4 | A,8 | A,4 C,4 | C,4 G,4 | %42
 A,4 G,4 | G,8 | A,4 C,4 | C,4 G,4 | G,4 E,4 | A,,8 | D,4 D,4 | D,4 D,4 | G,4 A,4 | C,4 G,4 | %52
 D,4 D,4 | D,4 D,4 | G,4 A,4 | C,4 A,4 | G,4 G,4 | G,8 | D,4 G,4 | G,8 | G,4 G,4 | D,4 B,4 | %62
 D,4 B,4 | A,8 | A,4 C,4 | C,4 G,4 | A,4 G,4 | G,8 | A,4 C,4 | C,4 G,4 | G,4 E,4 | A,,8 |] %72

